icons/svg/osmc_other/osmc_black_horse.svg

<?xml version="1.0" encoding="UTF-8" standalone="no"?>
<!-- Generator: Adobe Illustrator 16.0.4, SVG Export Plug-In . SVG Version: 6.00 Build 0)  -->

<svg
   xmlns:dc="http://purl.org/dc/elements/1.1/"
   xmlns:cc="http://creativecommons.org/ns#"
   xmlns:rdf="http://www.w3.org/1999/02/22-rdf-syntax-ns#"
   xmlns:svg="http://www.w3.org/2000/svg"
   xmlns="http://www.w3.org/2000/svg"
   xmlns:sodipodi="http://sodipodi.sourceforge.net/DTD/sodipodi-0.dtd"
   xmlns:inkscape="http://www.inkscape.org/namespaces/inkscape"
   version="1.1"
   id="Слой_1"
   x="0px"
   y="0px"
   width="16"
   height="16"
   viewBox="0 0 16 16"
   xml:space="preserve"
   inkscape:version="0.48.4 r9939"
   sodipodi:docname="osmc_blue_hiker.svg"
   style="enable-background:new"><metadata
     id="metadata11"><rdf:RDF><cc:Work
         rdf:about=""><dc:format>image/svg+xml</dc:format><dc:type
           rdf:resource="http://purl.org/dc/dcmitype/StillImage" /><dc:title></dc:title></cc:Work></rdf:RDF></metadata><defs
     id="defs9" /><sodipodi:namedview
     pagecolor="#ffffff"
     bordercolor="#666666"
     borderopacity="1"
     objecttolerance="10"
     gridtolerance="10"
     guidetolerance="10"
     inkscape:pageopacity="0"
     inkscape:pageshadow="2"
     inkscape:window-width="1920"
     inkscape:window-height="1004"
     id="namedview7"
     showgrid="false"
     inkscape:zoom="22.627417"
     inkscape:cx="12.7555"
     inkscape:cy="9.589325"
     inkscape:window-x="1680"
     inkscape:window-y="0"
     inkscape:window-maximized="1"
     inkscape:current-layer="Слой_1" /><path
     inkscape:connector-curvature="0"
     d="M 11.598389,3.1814289 11.47087,4.032135 c 0.03527,0.0384 0.07305,0.079939 0.110821,0.122722 0.06533,-0.203076 0.169681,-0.4236838 0.337695,-0.6058883 0.05031,-0.054477 0.06804,-0.1314873 0.04655,-0.2024498 -0.02149,-0.070968 -0.07932,-0.1250167 -0.151526,-0.1421324 -0.06678,-0.016076 -0.135453,-0.023997 -0.204327,-0.023997 -0.0041,0 -0.0078,0.00104 -0.01166,0.00104 z"
     id="path3" /><path
     inkscape:connector-curvature="0"
     d="m 4.2525934,8.646111 c 0,-3.2260468 2.5059945,-4.8178869 5.1706082,-4.9996738 C 9.4922895,3.4750853 9.6072846,3.2119007 9.8397888,2.9374461 9.6657247,2.8257828 9.5870405,2.8230732 9.5538553,2.8230732 c -0.00855,0 -0.017114,4.175e-4 -0.025669,0.00169 C 9.3687312,2.8445814 9.2531048,2.9766999 9.1410266,3.1042227 9.0932265,3.1586996 9.0076608,3.2561641 8.9615357,3.281209 8.9179101,3.2699298 8.8267087,3.2073242 8.7701472,3.1687159 8.6083969,3.0578954 8.4059471,2.9199323 8.1771988,2.9731529 7.9866465,3.0113464 7.8716462,3.1918822 7.7604029,3.3665737 7.7161551,3.4362838 7.6366308,3.5610918 7.590721,3.5955295 7.5433486,3.5813333 7.4477536,3.5243544 7.3884799,3.4888834 7.2098239,3.3822374 7.0253234,3.2716152 6.8374833,3.334646 6.6404592,3.4001816 6.5734638,3.6193284 6.5146063,3.8128029 6.4949909,3.8772883 6.4638891,3.9789378 6.4378046,4.0244367 6.3850001,4.016658 6.2814799,3.9720471 6.216363,3.9438753 6.0281055,3.8626915 5.8145931,3.7708536 5.6204924,3.8676958 c -0.203076,0.1016417 -0.1949356,0.344791 -0.1882576,0.540144 0.00208,0.057809 0.00506,0.1490193 -0.00247,0.1945182 -0.052182,0.023375 -0.1383754,0.036313 -0.221859,0.048838 -0.1690571,0.025462 -0.360653,0.05427 -0.5063339,0.1838742 -0.1458895,0.1252241 -0.1458895,0.3174501 -0.1458895,0.4871321 0,0.067623 0,0.1936845 -0.019822,0.2210254 -0.027757,0.023167 -0.1465158,0.038401 -0.217477,0.047372 -0.1753177,0.022324 -0.3930034,0.049887 -0.5040379,0.2170594 -0.131696,0.1755264 -0.049252,0.3955068 0.017114,0.572077 0.025877,0.069088 0.074092,0.1976489 0.070332,0.2274946 -0.025669,0.031517 -0.1531951,0.077217 -0.2293745,0.1043515 -0.1955618,0.069918 -0.4387097,0.1571596 -0.5178114,0.3952981 -0.046749,0.1634215 0.053219,0.3203724 0.1498541,0.472105 0.026084,0.041318 0.066158,0.104144 0.085994,0.1450547 -0.031932,0.026927 -0.097053,0.063241 -0.1394189,0.086616 C 3.1105775,7.888507 2.9183554,7.9951555 2.8774472,8.2199379 2.85428,8.3825233 2.9703247,8.5225684 3.0828192,8.6580215 3.1189259,8.7014398 3.1746473,8.7688421 3.1999016,8.8112166 3.173597,8.837301 3.1241367,8.874043 3.0915832,8.8980394 2.9651016,8.9921622 2.791665,9.1205258 2.791665,9.3348719 c 0,0.146097 0.1033137,0.2752895 0.2126762,0.4122037 0.040073,0.050095 0.1060237,0.1325322 0.1218922,0.1690558 0.00298,0.037156 -0.026927,0.076802 -0.091206,0.1523606 -0.083685,0.0985 -0.1982753,0.233339 -0.1796998,0.437458 0.023375,0.210381 0.2293732,0.315154 0.3950894,0.399473 0.050094,0.02546 0.1314886,0.06679 0.1609167,0.09183 0.011927,0.03047 0.030894,0.05781 0.055721,0.07994 0.019823,0.01774 0.4497723,0.386742 1.4365576,0.38215 C 4.4596858,10.796891 4.252644,9.3916387 4.252644,8.6461227 z"
     id="path5" /><path
     inkscape:connector-curvature="0"
     d="M 12.727726,7.3063942 C 12.357262,5.7155991 11.692309,4.9291749 11.440186,4.6309278 l -0.03548,-0.04216 C 11.263195,4.4190852 11.114175,4.2604646 11.027769,4.170719 l 0.172396,-1.1495806 c 0.01022,-0.068245 -0.01378,-0.1371229 -0.0645,-0.1838743 -0.05072,-0.046957 -0.121465,-0.065535 -0.188258,-0.05051 -0.02609,0.00584 -0.522612,0.1352457 -0.787884,0.3959256 C 9.8942526,3.4433599 9.7598431,3.7885683 9.708291,4.050083 7.1413531,4.1333541 4.6700051,5.5780574 4.6700051,8.6461097 c 0,0.793311 0.2295818,2.0662393 0.5843918,2.5880183 0,0 0.3374855,0.678311 1.9543704,1.583491 1.0996984,0.366913 2.2012753,0.400725 2.5650594,0.400725 0.065535,0 0.1072811,-0.001 0.1206346,-0.0015 0.088288,-0.003 0.1650907,-0.06074 0.1922217,-0.144846 0.0079,-0.02504 0.19786,-0.622794 0.19786,-1.274181 0,-0.677893 -0.27216,-1.114308 -0.535345,-1.536322 C 9.4682727,9.8113787 9.1781648,9.3457443 9.1781648,8.5209179 c 0,-0.4226401 0.1504802,-0.7380017 0.4478937,-0.9402428 0.4305705,0.8060422 1.2443355,1.0028563 1.5837005,1.0502337 0.06929,0.2026585 0.225826,0.5495368 0.508837,0.6622412 0.09288,0.036936 0.228957,0.060531 0.391124,-6.263e-4 0.06324,0.035692 0.138584,0.061569 0.215391,0.053012 0.221651,-0.00298 0.446642,-0.1623765 0.602341,-0.4272309 0.01461,-0.02484 0.03234,-0.05134 0.05155,-0.080147 0.170518,-0.2569241 0.522196,-0.7860068 -0.251287,-1.5317314 z M 11.035703,6.5381294 c -0.172811,0 -0.313065,-0.1400452 -0.313065,-0.3130668 0,-0.1730216 0.140254,-0.3130668 0.313065,-0.3130668 0.172814,0 0.313067,0.1400452 0.313067,0.3130668 0,0.1730216 -0.140253,0.3130668 -0.313067,0.3130668 z"
     id="path7" /></svg>

<svg width="16" height="16" viewBox="0 0 16 16" fill="none" xmlns="http://www.w3.org/2000/svg">
<path d="M11.5984 3.18143L11.4709 4.03214C11.5061 4.07054 11.5439 4.11207 11.5817 4.15486C11.647 3.95178 11.7514 3.73117 11.9194 3.54897C11.9697 3.49449 11.9874 3.41748 11.9659 3.34652C11.9444 3.27555 11.8866 3.2215 11.8144 3.20439C11.7476 3.18831 11.679 3.18039 11.6101 3.18039C11.606 3.18039 11.6023 3.18143 11.5984 3.18143L11.5984 3.18143Z" fill="black"/>
<path d="M4.2526 8.6461C4.2526 5.42005 6.75859 3.82821 9.42321 3.64642C9.4923 3.47507 9.60729 3.21189 9.8398 2.93743C9.66573 2.82577 9.58705 2.82306 9.55386 2.82306C9.54531 2.82306 9.53675 2.82348 9.52819 2.82475C9.36874 2.84457 9.25311 2.97669 9.14103 3.10421C9.09323 3.15869 9.00767 3.25615 8.96154 3.28119C8.91792 3.26992 8.82672 3.20731 8.77015 3.1687C8.6084 3.05788 8.40595 2.91992 8.17721 2.97314C7.98665 3.01133 7.87165 3.19187 7.76041 3.36656C7.71616 3.43627 7.63664 3.56108 7.59073 3.59552C7.54336 3.58132 7.44776 3.52434 7.38849 3.48887C7.20983 3.38222 7.02533 3.2716 6.83749 3.33463C6.64047 3.40017 6.57347 3.61931 6.51461 3.81279C6.495 3.87727 6.4639 3.97892 6.43781 4.02442C6.38501 4.01664 6.28149 3.97203 6.21637 3.94386C6.02811 3.86268 5.8146 3.77084 5.6205 3.86768C5.41742 3.96932 5.42556 4.21247 5.43224 4.40783C5.43432 4.46563 5.4373 4.55684 5.42977 4.60234C5.37759 4.62572 5.2914 4.63866 5.20791 4.65118C5.03886 4.67664 4.84726 4.70545 4.70158 4.83506C4.55569 4.96028 4.55569 5.15251 4.55569 5.32219C4.55569 5.38981 4.55569 5.51587 4.53587 5.54321C4.50811 5.56638 4.38935 5.58161 4.31839 5.59059C4.14307 5.61291 3.92539 5.64047 3.81435 5.80765C3.68266 5.98317 3.7651 6.20315 3.83147 6.37972C3.85734 6.44881 3.90556 6.57737 3.9018 6.60722C3.87613 6.63873 3.7486 6.68443 3.67242 6.71157C3.47686 6.78149 3.23371 6.86873 3.15461 7.10687C3.10786 7.27029 3.20783 7.42724 3.30447 7.57897C3.33055 7.62029 3.37062 7.68312 3.39046 7.72403C3.35853 7.75095 3.29341 7.78727 3.25104 7.81064C3.11058 7.88849 2.91836 7.99514 2.87745 8.21992C2.85429 8.38251 2.97033 8.52255 3.08283 8.65801C3.11893 8.70143 3.17465 8.76883 3.19991 8.8112C3.1736 8.83729 3.12414 8.87403 3.09159 8.89803C2.96511 8.99215 2.79167 9.12051 2.79167 9.33486C2.79167 9.48095 2.89499 9.61015 3.00435 9.74706C3.04442 9.79716 3.11037 9.87959 3.12624 9.91612C3.12922 9.95327 3.09931 9.99292 3.03503 10.0685C2.95135 10.167 2.83676 10.3018 2.85533 10.5059C2.87871 10.7163 3.08471 10.8211 3.25042 10.9054C3.30052 10.9309 3.38191 10.9722 3.41134 10.9972C3.42327 11.0277 3.44223 11.055 3.46706 11.0772C3.48688 11.0949 3.91683 11.4639 4.90362 11.4593C4.45969 10.7969 4.25265 9.39162 4.25265 8.64611L4.2526 8.6461Z" fill="black"/>
<path d="M12.7277 7.30639C12.3573 5.71559 11.6923 4.92917 11.4402 4.63092L11.4047 4.58876C11.2632 4.41908 11.1142 4.26046 11.0278 4.17071L11.2002 3.02113C11.2104 2.95288 11.1864 2.88401 11.1357 2.83726C11.0849 2.7903 11.0142 2.77172 10.9474 2.78675C10.9213 2.79259 10.4248 2.92199 10.1595 3.18267C9.89425 3.44335 9.75984 3.78856 9.70828 4.05007C7.14135 4.13335 4.67 5.57805 4.67 8.6461C4.67 9.43941 4.89958 10.7123 5.25439 11.2341C5.25439 11.2341 5.59188 11.9124 7.20876 12.8176C8.30846 13.1845 9.41004 13.2183 9.77382 13.2183C9.83935 13.2183 9.8811 13.2173 9.89445 13.2168C9.98274 13.2138 10.0595 13.1561 10.0867 13.072C10.0946 13.0469 10.2845 12.4492 10.2845 11.7978C10.2845 11.1199 10.0124 10.6835 9.74919 10.2615C9.46827 9.81137 9.17816 9.34574 9.17816 8.52091C9.17816 8.09827 9.32864 7.78291 9.62605 7.58067C10.0566 8.38671 10.8704 8.58352 11.2098 8.6309C11.279 8.83356 11.4356 9.18044 11.7186 9.29314C11.8115 9.33008 11.9475 9.35367 12.1097 9.29251C12.173 9.32821 12.2483 9.35408 12.3251 9.34553C12.5468 9.34255 12.7717 9.18315 12.9274 8.9183C12.9421 8.89346 12.9598 8.86696 12.979 8.83815C13.1495 8.58122 13.5012 8.05214 12.7277 7.30642L12.7277 7.30639ZM11.0357 6.53812C10.8629 6.53812 10.7226 6.39808 10.7226 6.22505C10.7226 6.05203 10.8629 5.91199 11.0357 5.91199C11.2085 5.91199 11.3488 6.05203 11.3488 6.22505C11.3488 6.39808 11.2085 6.53812 11.0357 6.53812Z" fill="black"/>
</svg>
